X:2006 
T:Hush! My babe lie still and slumber 
N:See als KV348
C:Traditional
O:Isle of Man
S:Henry Clague, Ballanorris 
Z:Clague collection
B:Kiaull Vannin #6 
M:2/4 
Q:60 
L:1/4
K:D 
B/c/ d/e/|f f|e e|c A|d>e|f f|e d|c z| 
f>e | d c|e B|A F|B>d|c>B|A A|B2|| 
